X:108
T: Gaspe Reel
R:hp 32 reel
O:French Canadian
M:C|
L:1/8
K:D
|: "D"f2ef e2dB | AFA2 B2A2 | "A7"g2fg fecA | BABc ~B2A2 \
|  "D"f2ef e2dB | AFA2 B2A2 | "A7"g2fg fecA | "A7"B2c2 "D"d4 :|
|: "A7"e2f2 g2fe | "D"f2g2 a4 | "A7"e2f2 gecA | "(G)"BABc "A7"~B2A2 \
|  "A7"e2f2 g2fe | "D"f2g2 a4 | "A7"e2f2 gecA | "A7"B2c2 "D"d4 :|

